X:8
T:Boyer's Maggot
M:C
L:1/8
B:Thompson's Compleat Collection of 200 Favourite Country Dances, vol. 2 (London, 1765)
Z:Transcribed and edited by Flynn Titford-Mock, 2007
Z:abc's:AK/Fiddler's Companion
K:G
G>DD>E G>AB>G | A>FE>D A>Bc>A | B>GG>A B>cd>B | cAdB G2G2 :|
|: (B/c/d) d2 BcdB | (c/d/e) e2 cdec | (B/c/d) d2 (e/f/g) g2 | cAdB G2G2 :|

